svg/fluentui-system-icons/ic_fluent_align_bottom_16_regular.svg

<svg width="16" height="16" viewBox="0 0 16 16" fill="none" xmlns="http://www.w3.org/2000/svg">
<path d="M1.5 14C1.22386 14 1 13.7761 1 13.5C1 13.2239 1.22386 13 1.5 13H14.5C14.7761 13 15 13.2239 15 13.5C15 13.7761 14.7761 14 14.5 14H1.5ZM2 10.25C2 11.2165 2.7835 12 3.75 12H5.25C6.2165 12 7 11.2165 7 10.25L7 3.75C7 2.7835 6.2165 2 5.25 2H3.75C2.7835 2 2 2.7835 2 3.75L2 10.25ZM3.75 11C3.33579 11 3 10.6642 3 10.25L3 3.75C3 3.33579 3.33579 3 3.75 3H5.25C5.66421 3 6 3.33579 6 3.75L6 10.25C6 10.6642 5.66421 11 5.25 11H3.75ZM9 10.25C9 11.2165 9.7835 12 10.75 12H12.25C13.2165 12 14 11.2165 14 10.25V5.75C14 4.7835 13.2165 4 12.25 4H10.75C9.7835 4 9 4.7835 9 5.75L9 10.25ZM10.75 11C10.3358 11 10 10.6642 10 10.25V5.75C10 5.33579 10.3358 5 10.75 5H12.25C12.6642 5 13 5.33579 13 5.75V10.25C13 10.6642 12.6642 11 12.25 11H10.75Z" fill="#212121"/>
</svg>

<svg xmlns="http://www.w3.org/2000/svg" width="16" height="16"><path d="M1.5 14a.5.5 0 0 1 0-1h13a.5.5 0 0 1 0 1h-13Zm.5-3.75c0 .966.784 1.75 1.75 1.75h1.5A1.75 1.75 0 0 0 7 10.25v-6.5A1.75 1.75 0 0 0 5.25 2h-1.5A1.75 1.75 0 0 0 2 3.75v6.5Zm1.75.75a.75.75 0 0 1-.75-.75v-6.5A.75.75 0 0 1 3.75 3h1.5a.75.75 0 0 1 .75.75v6.5a.75.75 0 0 1-.75.75h-1.5ZM9 10.25c0 .966.784 1.75 1.75 1.75h1.5A1.75 1.75 0 0 0 14 10.25v-4.5A1.75 1.75 0 0 0 12.25 4h-1.5A1.75 1.75 0 0 0 9 5.75v4.5Zm1.75.75a.75.75 0 0 1-.75-.75v-4.5a.75.75 0 0 1 .75-.75h1.5a.75.75 0 0 1 .75.75v4.5a.75.75 0 0 1-.75.75h-1.5Z"/></svg>
